images/icon1.svg

<svg width="28" height="28" viewBox="0 0 28 28" fill="none" xmlns="http://www.w3.org/2000/svg">
<path d="M23.3333 14V8.16669H25.6666V15.1667H23.3333M23.3333 19.8334H25.6666V17.5H23.3333M11.6666 15.1667C14.7816 15.1667 21 16.73 21 19.8334V23.3334H2.33331V19.8334C2.33331 16.73 8.55165 15.1667 11.6666 15.1667ZM11.6666 4.66669C12.9043 4.66669 14.0913 5.15835 14.9665 6.03352C15.8416 6.90869 16.3333 8.09568 16.3333 9.33335C16.3333 10.571 15.8416 11.758 14.9665 12.6332C14.0913 13.5084 12.9043 14 11.6666 14C10.429 14 9.24198 13.5084 8.36682 12.6332C7.49164 11.758 6.99998 10.571 6.99998 9.33335C6.99998 8.09568 7.49164 6.90869 8.36682 6.03352C9.24198 5.15835 10.429 4.66669 11.6666 4.66669ZM11.6666 17.3834C8.20165 17.3834 4.54998 19.0867 4.54998 19.8334V21.1167H18.7833V19.8334C18.7833 19.0867 15.1316 17.3834 11.6666 17.3834ZM11.6666 6.88335C11.0169 6.88335 10.3937 7.14148 9.93424 7.60094C9.47477 8.06041 9.21665 8.68357 9.21665 9.33335C9.21665 9.98313 9.47477 10.6063 9.93424 11.0658C10.3937 11.5252 11.0169 11.7834 11.6666 11.7834C12.3164 11.7834 12.9396 11.5252 13.3991 11.0658C13.8585 10.6063 14.1166 9.98313 14.1166 9.33335C14.1166 8.68357 13.8585 8.06041 13.3991 7.60094C12.9396 7.14148 12.3164 6.88335 11.6666 6.88335Z" fill="black"/>
</svg>

<?xml version="1.0" encoding="utf-8"?>
<!-- Generator: Adobe Illustrator 27.0.0, SVG Export Plug-In . SVG Version: 6.00 Build 0)  -->
<svg version="1.1" id="Vrstva_1" xmlns="http://www.w3.org/2000/svg" xmlns:xlink="http://www.w3.org/1999/xlink" x="0px" y="0px"
	 viewBox="0 0 28 28" style="enable-background:new 0 0 28 28;" xml:space="preserve">
<path d="M23.3,14V8.2h2.3v7h-2.3 M23.3,19.8h2.3v-2.3h-2.3 M11.7,15.2c3.1,0,9.3,1.6,9.3,4.7v3.5H2.3v-3.5
	C2.3,16.7,8.6,15.2,11.7,15.2z M11.7,4.7c1.2,0,2.4,0.5,3.3,1.4c0.9,0.9,1.4,2.1,1.4,3.3c0,1.2-0.5,2.4-1.4,3.3
	c-0.9,0.9-2.1,1.4-3.3,1.4c-1.2,0-2.4-0.5-3.3-1.4C7.5,11.8,7,10.6,7,9.3C7,8.1,7.5,6.9,8.4,6C9.2,5.2,10.4,4.7,11.7,4.7z
	 M11.7,17.4c-3.5,0-7.1,1.7-7.1,2.5v1.3h14.2v-1.3C18.8,19.1,15.1,17.4,11.7,17.4z M11.7,6.9c-0.6,0-1.3,0.3-1.7,0.7
	C9.5,8.1,9.2,8.7,9.2,9.3s0.3,1.3,0.7,1.7c0.5,0.5,1.1,0.7,1.7,0.7c0.6,0,1.3-0.3,1.7-0.7c0.5-0.5,0.7-1.1,0.7-1.7s-0.3-1.3-0.7-1.7
	C12.9,7.1,12.3,6.9,11.7,6.9z"/>
</svg>
